icons/filled/bus.svg

<svg xmlns="http://www.w3.org/2000/svg" width="24" height="24" viewBox="0 0 24 24" fill="currentColor"><path d="M17 4c3.4 0 6 3.64 6 8v5a1 1 0 0 1 -1 1h-1.171a3.001 3.001 0 0 1 -5.658 0h-6.342a3.001 3.001 0 0 1 -5.658 0h-1.171a1 1 0 0 1 -1 -1v-11a2 2 0 0 1 2 -2zm-11 12a1 1 0 1 0 0 2a1 1 0 0 0 0 -2m12 0a1 1 0 1 0 0 2a1 1 0 0 0 0 -2m-.76 -9.989l1.068 4.989h2.636c-.313 -2.756 -1.895 -4.82 -3.704 -4.989m-11.24 -.011h-3v3h3zm5 0h-3v3h3zm4.191 0h-2.191v3h2.834z"/></svg>

<svg xmlns="http://www.w3.org/2000/svg" width="24" height="24" fill="currentColor"><path d="M17 4c3.4 0 6 3.64 6 8v5a1 1 0 0 1-1 1h-1.171a3.001 3.001 0 0 1-5.658 0H8.829a3.001 3.001 0 0 1-5.658 0H2a1 1 0 0 1-1-1V6a2 2 0 0 1 2-2zM6 16a1 1 0 1 0 0 2 1 1 0 0 0 0-2m12 0a1 1 0 1 0 0 2 1 1 0 0 0 0-2m-.76-9.989L18.308 11h2.636c-.313-2.756-1.895-4.82-3.704-4.989M6 6H3v3h3zm5 0H8v3h3zm4.191 0H13v3h2.834z"/></svg>
